X:101
T:My Darling Asleep
Z: id:dc-jig-82
M:6/8
L:1/8
K:D Major
e|fdd cAA|BGG A2G|FAA def|gfg eaa|!
fdd cAA|BGG A2G|FAA def|gec d2:|!
A|FAA Add|FAA BGG|FAA def|gfg eaa|!
fdd cAA|BGG A2G|FAA def|gec d2:|!

